!!! OTL: Berkowitz539
!!! Chapter: 1
!!! Section: IV
!!! Page: 135
!!! Mode: 
!!! Encoder: DJB
**kern
*staff1
*I"Piano
=1-
*clefG2
*k[]
*G:
*M2/4
16g\LL
16b\J
8dd\J
8dd\L
8dd\J
=2
8cc#\L
8dd\J
8dd\L
16dd\L
16ee\JJ
=3
16ff\LL
16ee\J
8dd\J
8cc#\L
8dd\J
=4
4b\
4r
=5
16g/LL
16a/J
8b-/J
8b-/L
8b-/J
=6
8a/L
8b-/J
8g/L
16g/L
16f/JJ
=7
16e/LL
16f/J
8g/J
8g/L
8e/J
=8
4a/
8r
16b/LL
16a/JJ
=9
16g\LL
16b\J
8dd\J
8dd\L
8cc#\J
=10
!!linebreak:original
8cc#\L
8dd\J
8cc#\L
16dd\L
16ee\JJ
=11
16ff\LL
16ee\
16dd\
16cc#\JJ
8dd\L
8ee\J
=12
4b\
8r
16g/LL
16a/JJ
=13
8b-/L
8b-/J
8f/L
16e/L
16f/JJ
=14
16g/LL
16a/J
8b-/J
8a/L
8g/J
=15
8dd\L
8cc#\J
16b-/LL
16a/J
8g/J
=16
16b\LL
16cc#\J
8dd\J
4g/
==
*-
